X:31
T:Something New. VWMLa.031
%%VWML:Anon2-3049-p19-0
F:http://www.vwml.org/record/Anon2/3049/p19
S:Anon. MS, late 18thC, Vaughan Williams Mem. Library
O:England;Yorkshire
Z:vmp/efdss.Simon Wilson. Reviewed PJH 2008.
M:2/4
L:1/8
Q:2/4=85
K:D
ddfd|f2g2|edef|d2A2|\
ddfd|g2f2|edef|d2d2:|
|:e/e/ee2|fa/f/d2|fg/a/ gf|e/e/ee2|\
fa/f/d2|fg/a/ gf/e/|d2D2:|
T:Brandy Bottle. VWMLa.032
R:Reel
S:Anon. MS, late 18thC, Vaughan Williams Mem. Library
O:England;Yorkshire
Z:vmp/efdss.Simon Wilson. Reviewed PJH 2008.
M:2/2
L:1/8
Q:2/4=90
K:G
G2G2(B/c/d)B2|G2GE FAFD|\
G2G2(B/c/d)B2|A/B/c/A/ dB A2FD:|
|:Ec2E cEB2|Ec2E FAF2|\
Ec2E cEB2|A/B/c/A/ dB A2FD:|
|:g2g2(f/g/a)f2|g2ge fafd|\
g2g2(b/a/g)f2|(e/f/g/e/) dB A2F2:|
